X: 26507
T: Michael O'Conor
R: jig
M: 6/8
K: Gmajor
|:d2c B2G|AcA FDF|G3 GFE|FEA D2d|
B2G BdB|ceA FDF|G2E AFD|G3 G3:|
|:Bcd dBG|dBG G2d|cde ecA|ecA A2c|
Bcd ded|g2d dB/c/d|e2A FDF|G3 G3:|

